src/apps/scalable/jamesdsp.svg

<svg id="svg1050" width="64" height="64" version="1.1" viewBox="0 0 16.933 16.933" xmlns="http://www.w3.org/2000/svg" xmlns:xlink="http://www.w3.org/1999/xlink">
    <defs id="defs1040">
        <filter id="filter1057" x="-.026999999" y="-.026999999" width="1.054" height="1.054" color-interpolation-filters="sRGB">
            <feGaussianBlur id="feGaussianBlur1028" stdDeviation="0.61875"/>
        </filter>
        <linearGradient id="linearGradient19539" x1="1.6632454" x2="15.221723" y1="15.235642" y2="1.7188777" gradientUnits="userSpaceOnUse">
            <stop id="stop19533" stop-color="#4c74e6" offset="0"/>
            <stop id="stop19535" stop-color="#8d55e9" stop-opacity=".96078432" offset="1"/>
        </linearGradient>
    </defs>
    <rect id="rect1042" transform="scale(.26458)" x="4.5" y="4.5" width="55" height="55" ry="15" fill="#141414" filter="url(#filter1057)" opacity=".3" stroke-linecap="round" stroke-width="2.7444"/>
    <rect id="rect1044" x="1.1906" y="1.1906" width="14.552" height="14.552" ry="3.9686999" fill="url(#linearGradient19539)" stroke-linecap="round" stroke-width=".72611"/>
    <g id="g32096" transform="matrix(.89743595 0 0 .89743595 .86835892 .86835871)" fill="#fff">
        <path id="path16-5" d="m4.579393 13.95644h0.04757c0.704389 0 0.708559-0.615922 0.70794-1.048854l-0.0063-4.4410862h-1.403197v4.4410862c0 0.432922-0.01865 1.048854 0.654033 1.048854zm0-10.97988h0.04757c0.704389 0 0.701599 0.6159344 0.701599 1.0488554v4.4410848h-1.403197v-4.4316277c0-0.4329211-0.01865-1.0583125 0.654033-1.0583125z" opacity=".75" style="isolation:isolate"/>
        <circle id="path126-3" cx="4.6301169" cy="5.5561409" r="1.3228905" opacity=".8" style="isolation:isolate"/>
        <path id="path16-5-1" d="m8.415776 13.95644h0.04756c0.704389 0 0.708559-0.615922 0.70794-1.048854l-0.0063-4.4410862h-1.403197v4.4410862c0 0.432922-0.01865 1.048854 0.654033 1.048854zm0-10.97988h0.04756c0.704389 0 0.701599 0.6159344 0.701599 1.0488554v4.4410848h-1.403197v-4.4316277c0-0.4329211-0.01865-1.0583125 0.654033-1.0583125z" opacity=".75" style="isolation:isolate"/>
        <circle id="path126-3-2" cx="8.4665003" cy="11.376859" r="1.3228905" opacity=".8" style="isolation:isolate"/>
        <path id="path16-5-6" transform="matrix(.35277082 0 0 .35277082 2.418198 7e-8)" d="m27.876344 39.562342h0.134833c1.996733 0 2.008553-1.745955 2.0068-2.973187l-0.017977-12.589155h-3.977645v12.589155c2e-6 1.227203-0.05286 2.973187 1.853989 2.973187zm0-31.124684h0.134833c1.996733 0 1.988823 1.74599 1.988823 2.973192v12.58915h-3.977645v-12.562342c2e-6 -1.227202-0.05286-3 1.853989-3z" opacity=".75" style="isolation:isolate"/>
        <circle id="path126-3-0" cx="12.302882" cy="7.6727657" r="1.3228905" opacity=".8" stroke-width=".330723" style="isolation:isolate"/>
    </g>
</svg>

<?xml version="1.0" encoding="UTF-8" standalone="no"?>
<svg
   width="64"
   height="64"
   inkscape:version="1.1.2 (0a00cf5339, 2022-02-04, custom)"
   sodipodi:docname="jamesdsp.svg"
   version="1.1"
   viewBox="0 0 16.933 16.933"
   id="svg1050"
   xmlns:inkscape="http://www.inkscape.org/namespaces/inkscape"
   xmlns:sodipodi="http://sodipodi.sourceforge.net/DTD/sodipodi-0.dtd"
   xmlns:xlink="http://www.w3.org/1999/xlink"
   xmlns="http://www.w3.org/2000/svg"
   xmlns:svg="http://www.w3.org/2000/svg"
   xmlns:rdf="http://www.w3.org/1999/02/22-rdf-syntax-ns#"
   xmlns:cc="http://creativecommons.org/ns#"
   xmlns:dc="http://purl.org/dc/elements/1.1/">
  <sodipodi:namedview
     bordercolor="#666666"
     borderopacity="1.0"
     inkscape:current-layer="svg1050"
     inkscape:cx="-107"
     inkscape:cy="43"
     inkscape:pagecheckerboard="0"
     inkscape:pageopacity="0.0"
     inkscape:pageshadow="2"
     inkscape:window-height="1016"
     inkscape:window-maximized="1"
     inkscape:window-width="1920"
     inkscape:window-x="0"
     inkscape:window-y="0"
     inkscape:zoom="2"
     pagecolor="#ffffff"
     showgrid="false"
     id="namedview1019"
     inkscape:snap-bbox="true"
     inkscape:bbox-paths="true"
     inkscape:bbox-nodes="true"
     inkscape:snap-bbox-edge-midpoints="true"
     inkscape:snap-bbox-midpoints="true" />
  <metadata
     id="metadata1021">
    <rdf:RDF>
      <cc:Work
         rdf:about="">
        <dc:format>image/svg+xml</dc:format>
        <dc:type
           rdf:resource="http://purl.org/dc/dcmitype/StillImage" />
      </cc:Work>
    </rdf:RDF>
  </metadata>
  <defs
     id="defs1040">
    <linearGradient
       gradientUnits="userSpaceOnUse"
       gradientTransform="matrix(46,0,0,46,1,1)"
       y2="0.97239321"
       x2="0.95147175"
       y1="0.059782609"
       x1="-0.0081521738"
       id="linearGradient30650">
      <stop
         id="stop30646"
         style="stop-color:#d3ddfa;stop-opacity:1"
         stop-opacity="1"
         offset="0" />
      <stop
         id="stop30648"
         style="stop-color:#091c4e;stop-opacity:1"
         stop-opacity="1"
         offset="0.98260868" />
    </linearGradient>
    <linearGradient
       inkscape:collect="always"
       id="linearGradient19537">
      <stop
         style="stop-color:#4c74e6;stop-opacity:1"
         offset="0"
         id="stop19533" />
      <stop
         style="stop-color:#8d55e9;stop-opacity:0.96078432"
         offset="1"
         id="stop19535" />
    </linearGradient>
    <linearGradient
       id="linearGradient1725"
       x1="-127"
       x2="-72.055832"
       y1="60"
       y2="5.0741572"
       gradientTransform="matrix(.26458 0 0 .26458 34.792 -.13493)"
       gradientUnits="userSpaceOnUse">
      <stop
         stop-color="#80b3ff"
         stop-opacity=".89804"
         offset="0"
         id="stop1721"
         style="stop-color:#cccccc;stop-opacity:1" />
      <stop
         stop-color="#0055d4"
         offset="1"
         id="stop1723"
         style="stop-color:#78e2af;stop-opacity:1" />
    </linearGradient>
    <linearGradient
       id="linearGradient64681">
      <stop
         stop-color="#99c2e6"
         offset="0"
         id="stop1023" />
      <stop
         stop-color="#6493bd"
         offset="1"
         id="stop1025" />
    </linearGradient>
    <filter
       id="filter1057"
       x="-0.026999999"
       y="-0.026999999"
       width="1.054"
       height="1.054"
       color-interpolation-filters="sRGB">
      <feGaussianBlur
         stdDeviation="0.61875"
         id="feGaussianBlur1028" />
    </filter>
    <linearGradient
       id="linearGradient1053"
       x1="-127"
       x2="-72.055832"
       y1="60"
       y2="5.0741572"
       gradientTransform="matrix(.26458 0 0 .26458 34.792 -.13493)"
       gradientUnits="userSpaceOnUse">
      <stop
         stop-color="#80b3ff"
         stop-opacity=".89804"
         offset="0"
         id="stop1031"
         style="stop-color:#2bc07e;stop-opacity:1" />
      <stop
         stop-color="#0055d4"
         offset="1"
         id="stop1033"
         style="stop-color:#78e2af;stop-opacity:1" />
    </linearGradient>
    <linearGradient
       x1="31.803"
       x2="31.803"
       y1="8.0244"
       y2="8.241"
       gradientTransform="matrix(.82927 0 0 .8636 -17.745 1.0542)"
       gradientUnits="userSpaceOnUse"
       xlink:href="#linearGradient64681"
       id="linearGradient1036" />
    <linearGradient
       x1="31.803"
       x2="31.803"
       y1="8.0244"
       y2="8.241"
       gradientTransform="matrix(.8636 0 0 .8636 -18.831 .94954)"
       gradientUnits="userSpaceOnUse"
       xlink:href="#linearGradient64681"
       id="linearGradient1038" />
    <linearGradient
       gradientUnits="userSpaceOnUse"
       gradientTransform="matrix(46,0,0,46,1,1)"
       y2="0.97239321"
       x2="0.95147175"
       y1="0.059782609"
       x1="-0.0081521738"
       id="linearGradient6353">
      <stop
         id="stop6347"
         style="stop-color:#8e54e9;stop-opacity:1"
         stop-opacity="1"
         offset="0" />
      <stop
         id="stop6351"
         style="stop-color:#4776e6;stop-opacity:1"
         stop-opacity="1"
         offset="0.98260868" />
    </linearGradient>
    <linearGradient
       inkscape:collect="always"
       xlink:href="#linearGradient19537"
       id="linearGradient19539"
       x1="1.6632454"
       y1="15.235642"
       x2="15.221723"
       y2="1.7188777"
       gradientUnits="userSpaceOnUse" />
  </defs>
  <rect
     transform="scale(0.26458)"
     x="4.5"
     y="4.5"
     width="55"
     height="55"
     ry="15"
     fill="#141414"
     filter="url(#filter1057)"
     opacity="0.3"
     stroke-width="2.7444"
     id="rect1042"
     style="stroke-linecap:round" />
  <rect
     x="1.1906"
     y="1.1906"
     width="14.552"
     height="14.552"
     ry="3.9686999"
     fill="url(#linearGradient1053)"
     stroke-width="0.72611"
     id="rect1044"
     style="fill:url(#linearGradient19539);stroke-linecap:round;fill-opacity:1" />
  <g
     id="g32096"
     transform="matrix(0.89743595,0,0,0.89743595,0.86835892,0.86835871)">
    <path
       id="path16-5"
       style="opacity:0.75;isolation:isolate;fill:#ffffff;fill-opacity:1;stroke:none;stroke-width:0.428271;stroke-miterlimit:10;stroke-opacity:1"
       d="m 4.579393,13.95644 h 0.04757 c 0.704389,0 0.708559,-0.615922 0.70794,-1.048854 L 5.328603,8.4664998 H 4.627004 3.925406 v 4.4410862 c 0,0.432922 -0.01865,1.048854 0.654033,1.048854 z m 0,-10.9798804 h 0.04757 c 0.704389,0 0.701599,0.6159344 0.701599,1.0488554 V 8.4664998 H 4.626963 3.925365 V 4.0348721 c 0,-0.4329211 -0.01865,-1.0583125 0.654033,-1.0583125 z"
       inkscape:connector-curvature="0"
       sodipodi:nodetypes="sssccccssssccccs"
       inkscape:label="grooveL" />
    <circle
       style="opacity:0.8;isolation:isolate;fill:#ffffff;fill-opacity:1;stroke:none;stroke-width:0.330723;stroke-opacity:1"
       id="path126-3"
       cx="4.6301169"
       cy="5.5561409"
       r="1.3228905"
       inkscape:label="handleL" />
    <path
       id="path16-5-1"
       style="opacity:0.75;isolation:isolate;fill:#ffffff;fill-opacity:1;stroke:none;stroke-width:0.428271;stroke-miterlimit:10;stroke-opacity:1"
       d="m 8.415776,13.95644 h 0.04756 c 0.704389,0 0.708559,-0.615922 0.70794,-1.048854 L 9.164976,8.4664998 H 8.463377 7.761779 v 4.4410862 c 0,0.432922 -0.01865,1.048854 0.654033,1.048854 z m 0,-10.9798804 h 0.04756 c 0.704389,0 0.701599,0.6159344 0.701599,1.0488554 V 8.4664998 H 8.463336 7.761738 V 4.0348721 c 0,-0.4329211 -0.01865,-1.0583125 0.654033,-1.0583125 z"
       inkscape:connector-curvature="0"
       sodipodi:nodetypes="sssccccssssccccs"
       inkscape:label="grooveM" />
    <circle
       style="opacity:0.8;isolation:isolate;fill:#ffffff;fill-opacity:1;stroke:none;stroke-width:0.330723;stroke-opacity:1"
       id="path126-3-2"
       cx="8.4665003"
       cy="11.376859"
       r="1.3228905"
       inkscape:label="handleM" />
    <path
       id="path16-5-6"
       style="opacity:0.75;isolation:isolate;fill:#ffffff;fill-opacity:1;stroke:none;stroke-width:1.21402;stroke-miterlimit:10;stroke-opacity:1"
       d="m 27.876344,39.562342 h 0.134833 c 1.996733,0 2.008553,-1.745955 2.0068,-2.973187 L 30,24 h -1.988823 -1.988822 v 12.589155 c 2e-6,1.227203 -0.05286,2.973187 1.853989,2.973187 z m 0,-31.124684 h 0.134833 C 30.00791,8.437658 30,10.183648 30,11.41085 V 24 H 28.011177 26.022355 V 11.437658 c 2e-6,-1.227202 -0.05286,-3 1.853989,-3 z"
       inkscape:connector-curvature="0"
       sodipodi:nodetypes="sssccccssssccccs"
       inkscape:label="grooveR"
       transform="matrix(0.35277082,0,0,0.35277082,2.418198,7e-8)" />
    <circle
       style="opacity:0.8;isolation:isolate;fill:#ffffff;fill-opacity:1;stroke-width:0.330723"
       id="path126-3-0"
       cx="12.302882"
       cy="7.6727657"
       r="1.3228905"
       inkscape:label="handleR" />
  </g>
</svg>
